public/images/warning.svg

<?xml version="1.0" encoding="UTF-8"?>
<svg width="19px" height="17px" viewBox="0 0 19 17" version="1.1" xmlns="http://www.w3.org/2000/svg" xmlns:xlink="http://www.w3.org/1999/xlink">
    <g stroke="none" stroke-width="1" fill="none" fill-rule="evenodd">
        <path d="M2.73578,16.6553 L16.2621,16.6553 C17.7563,16.6553 18.6879,15.583 18.6879,14.2295 C18.6879,13.8252 18.5825,13.4121 18.3627,13.0342 L11.5864,1.23047 C11.1293,0.430664 10.3207,5.32907052e-15 9.50336,5.32907052e-15 C8.67719,5.32907052e-15 7.86859,0.430664 7.41156,1.23047 L0.635195,13.043 C0.415469,13.4209 0.31,13.8252 0.31,14.2295 C0.31,15.583 1.241641,16.6553 2.73578,16.6553 Z M2.74457,15.2754 C2.13812,15.2754 1.73383,14.7744 1.73383,14.2295 C1.73383,14.0713 1.7602,13.8867 1.84809,13.7021 L8.61566,1.89844 C8.80902,1.56445 9.16059,1.40625 9.50336,1.40625 C9.84613,1.40625 10.18012,1.55566 10.3735,1.89844 L17.1323,13.7109 C17.2289,13.8867 17.2729,14.0713 17.2729,14.2295 C17.2729,14.7744 16.851,15.2754 16.2446,15.2754 L2.74457,15.2754 Z M9.50336,10.7314 C9.92523,10.7314 10.16254,10.4854 10.17133,10.0283 L10.30316,5.39648 C10.312,4.94824 9.96039,4.61426 9.49457,4.61426 C9.01996,4.61426 8.68598,4.93945 8.69477,5.3877 L8.80902,10.0283 C8.81781,10.4766 9.06391,10.7314 9.50336,10.7314 Z M9.50336,13.5879 C10.00434,13.5879 10.4526,13.1836 10.4526,12.6738 C10.4526,12.1553 10.01312,11.7598 9.50336,11.7598 C8.9848,11.7598 8.55414,12.1641 8.55414,12.6738 C8.55414,13.1748 8.99359,13.5879 9.50336,13.5879 Z" id="Shape" fill="#FF9040" fill-rule="nonzero"></path>
    </g>
</svg>

<svg width="19" height="17" xmlns="http://www.w3.org/2000/svg"><path d="M2.74 16.66h13.52c1.5 0 2.43-1.08 2.43-2.43 0-.4-.1-.82-.33-1.2L11.6 1.23A2.4 2.4 0 0 0 9.5 0a2.4 2.4 0 0 0-2.09 1.23L.64 13.04c-.22.38-.33.79-.33 1.19 0 1.35.93 2.43 2.43 2.43Zm0-1.38c-.6 0-1-.5-1-1.05 0-.16.02-.34.1-.53L8.63 1.9c.19-.34.54-.5.88-.5.35 0 .68.16.87.5l6.76 11.81c.1.18.14.36.14.52 0 .54-.42 1.05-1.03 1.05H2.74Zm6.76-4.55c.43 0 .66-.24.67-.7l.13-4.63c.01-.45-.34-.79-.8-.79-.48 0-.81.33-.8.78l.1 4.64c.02.45.26.7.7.7Zm0 2.86c.5 0 .95-.4.95-.92a.93.93 0 0 0-.95-.91c-.52 0-.95.4-.95.91 0 .5.44.92.95.92Z" fill="#FF9040" fill-rule="nonzero"/></svg>
